A t96l8v15>eeeeeeer16l64rara+b16&bg8e4r2drd+e8e8e8e16&ed+32.e8e8e8r16rara+b16&bb8b4r2r8ara+b8a8g8a+b8&b32.a4r8rgrg+l8agf+l16a&a64g4r4r32.l64g16&gf+rgf+8e8g8e8b16&be8drd+e16&el32.d+e16&e64re16&e64d+e16&e64re16&e64d+e16&e64ge16&e64d+l8eeeeeel64e16&ed+32.e8r16rara+b16&bg8e4>crc+d8d16&de32.derd32<b32.a16&ag32.e8e8e8e16&ed+32.e8e8e8r16rara+b16&bb+rba+16&a+b4r2r8r32.b16&barba8g8bbrb8&baa8.&a32.r8r32.bbb16.&ba+8b8>c16&c<b4&b32.e8g16&gf+rfe16&eg8&g32.r8.r>crc+d16&dd8<a+32.b8g1