#title"test"
#copyright"(c) Hsiang Nianian"

A t60v7>g+16v5d+16v6<<a4.r8>e4.g+8v8<b4.r8>f+4.v5b8v4c+2.v5b8g+8v4c+4.v7>c+8v5<<b4.>b8v7<a4.v8>>g+16c+16v6<e4.v5g+8v7<b4.v4>d+4.v5>d+8g+8v8<c+8v5e8g+8v6>d+8e8d+8c+8v8<g+8v6c+8v5e8v6g+8r8v5<b8v4>d+8v3f+8v2b8v6<a8>c+8v3e8v6c+8v4e8v3g+8v7>c+8<g+8v4<b8v6>d+8v5f+8v3d+8v5f+8v4b8v3>d+8v6<b8v5c+8v4e8v6g+8v8>d+8v7e8d+8v6<b8g+8c+8v4e8v6g+8>c+8<<b8>d+8v7f+8v6b8<a8>c+8v3e8v6c+8v7e8v5g+8v6>c+8<g+8<b8>d+8v7f+8v6d+8v4f+8v6b8v8>d+8v4<b8v3c+8v6e8g+8v4e8v8>c+8v6<g+8v5e8v6g+8v5c+8e8v4g+8v3e8v7>c+8v6<g+8v3e8g+8v5c+8v3f+8v6g+8v7>c+8r8<g+16v5d+16v6<<a4.r8>e4.g+8v8<b4.r8>f+4.v5b8v4c+2.v5b8g+8v4c+4.v7>c+8v5<<b4.>b8v7<a4.v8>>g+16c+16v6<e4.v5g+8v7<b4.v4>d+4.v5>d+8g+8v8<c+8v5e8g+8v6>d+8e8d+8c+8v8<g+8v6c+8v5e8v6g+8r8v5<b8v4>d+8v3f+8v2b8v6<a8>c+8v3e8v6c+8v4e8v3g+8v7>c+8<g+8v4<b8v6>d+8v5f+8v3d+8v5f+8v4b8v3>d+8v6<b8v5c+8v4e8v6g+8v8>d+8v7e8d+8v6<b8g+8c+8v4e8v6g+8>c+8<<b8>d+8v7f+8v6b8<a8>c+8v3e8v6c+8v7e8v5g+8v6>c+8<g+8<b8>d+8v7f+8v6d+8v4f+8v6b8v8>d+8v4<b8v3c+8v6e8g+8v4e8v8>c+8v6<g+8v5e8v6g+8v5c+8e8v4g+8v3e8v7>c+8v6<g+8v3e8g+8v5c+8v3f+8v6g+8v7>c+16

B r8v6>c+4.r4v7<g+4v6>g+16v7d+16c+2r8v5<b4v7>g+16d+16v8e4<g+2r4>g+8v5<e4v7>g+8v6e8v7<d+4>c+16v6d+16e16v7d+16v6<c+4&c+16r16v7>d+16r16v6<g+4v7>g+16c+16v6d+16r16<d+4r8v5f+4r8.>d+8r2.r16d+8d+8d+8r2r8v7g+8v9>c+8r16c+16r16<g+16v8g+8v10>d+8r4v9<g+16g+16v10>e16d+16v9c+8r8v8<g+8>d+16v7c+16<g+16r8.v8>c+16v9<g+16>c+16r2.r16v6<g+16v5c+16v6d+16r2r16v5g+16c+16e16v6d+16e16d+16e16d+16v5c+16r8.v7g+16r16>c+16r4r16v5<g+16r16>d+16r2.r16v9d+16v8<g+16>e16v9d+16e16v8d+16e16d+16e16d+16e16d+16v9c+16r8.v7d+16<g+16g+16v8e16g+16c+16d+16r16v7g+16c+16d+16r16g+16d+16v8c+16r16d+16v7c+16e16d+16e16d+16e16v6d+16r4.<c+4.r4v7<g+4v6>g+16v7d+16c+2r8v5<b4v7>g+16d+16v8e4<g+2r4>g+8v5<e4v7>g+8v6e8v7<d+4>c+16v6d+16e16v7d+16v6<c+4&c+16r16v7>d+16r16v6<g+4v7>g+16c+16v6d+16r16<d+4r8v5f+4r8.>d+8r2.r16d+8d+8d+8r2r8v7g+8v9>c+8v5<g+8g+8v8g+8v10>d+8v5<g+8g+8v9g+16g+16v10>e16d+16v9c+8r8v8<g+8>d+16v7c+16<g+16r8.v8>c+16v9<g+16>c+16r2.r16v6<g+16v5c+16v6d+16r2r16v5g+16c+16e16v6d+16e16d+16e16d+16v5c+16r8.v7g+16r16>c+16<g+16>c+16<g+16>c+16r16v5<g+16v7g+16v5>d+16r16v7<g+16>d+16<g+16r2r16v9>d+16v8<g+16>e16v9d+16e16v8d+16e16d+16e16d+16e16d+16v9c+16r8.v7d+16<g+16g+16v8e16r16c+16d+16r8v7c+16d+16r8d+16v8c+16r16d+16v7c+16e16d+16e16d+16e16v6d+16

C r4v6c+4r4.v8>c+8r4v5<d+4r4.v7>d+8r4v6<e2&e8r4r16v7>d+8r16v4<g+8r16v6>d+8v7d+8r16v5<f+8r4v7>e16d+16v4<e8r4.v8>c+8r4.v5<f+8r8v4>g+16v5d+16<b8r4>c+8r2.r16c+8e8c+8r1r1r1r1r1r1r1r1r1r2r16v6<<c+4r4.v8>c+8r4v5<d+4r4.v7>d+8r4v6<e2&e8r4r16v7>d+8r16v4<g+8r16v6>d+8v7d+8r16v5<f+8r4v7>e16d+16v4<e8r4.v8>c+8r4.v5<f+8r8v4>g+16v5d+16<b8r4>c+8r2.r16c+8e8c+8r2.r8>c+8r4.d+8d+8
